svgs/duotone/album-collection-circle-plus.svg

<svg xmlns="http://www.w3.org/2000/svg" viewBox="0 0 640 512"><!--! Font Awesome Pro 6.4.2 by @fontawesome - https://fontawesome.com License - https://fontawesome.com/license (Commercial License) Copyright 2023 Fonticons, Inc. --><path class="fa-primary" style="fill:var(--fa-primary-color,inherit);opacity:var(--fa-primary-opacity,1);" d="M352 368a144 144 0 1 1 288 0 144 144 0 1 1 -288 0zm144-80c-8.8 0-16 7.2-16 16v48H432c-8.8 0-16 7.2-16 16s7.2 16 16 16h48v48c0 8.8 7.2 16 16 16s16-7.2 16-16V384h48c8.8 0 16-7.2 16-16s-7.2-16-16-16H512V304c0-8.8-7.2-16-16-16z"/><path class="fa-secondary" style="fill:var(--fa-secondary-color,inherit);opacity:var(--fa-secondary-opacity,.4);" d="M56 0H456c13.3 0 24 10.7 24 24s-10.7 24-24 24H56C42.7 48 32 37.3 32 24S42.7 0 56 0zM12 176.2C21.1 165.9 34.2 160 48 160H464c13.8 0 26.9 5.9 36 16.2c4.2 4.8 7.4 10.3 9.4 16.3c-4.4-.3-8.9-.5-13.4-.5c-46.9 0-89.5 18.3-121 48.2C342.9 220.1 301.4 208 256 208C154.4 208 72 268.9 72 344s82.4 136 184 136c33.2 0 64.4-6.5 91.3-17.9c12.4 19.6 28.6 36.6 47.5 49.9H80c-24.2 0-44.6-18-47.6-42L.4 214c-1.7-13.7 2.5-27.4 11.6-37.7zM288 352c0 13.3-14.3 24-32 24s-32-10.7-32-24s14.3-24 32-24s32 10.7 32 24zM16 104c0-13.3 10.7-24 24-24H472c13.3 0 24 10.7 24 24s-10.7 24-24 24H40c-13.3 0-24-10.7-24-24z"/></svg>

<svg xmlns="http://www.w3.org/2000/svg" viewBox="0 0 640 512"><!--! Font Awesome Pro 6.1.1 by @fontawesome - https://fontawesome.com License - https://fontawesome.com/license (Commercial License) Copyright 2022 Fonticons, Inc. --><defs><style>.fa-secondary{opacity:.4}</style></defs><path class="fa-primary" d="M640 368C640 447.5 575.5 512 496 512C416.5 512 352 447.5 352 368C352 288.5 416.5 224 496 224C575.5 224 640 288.5 640 368zM480 303.1V351.1H432C423.2 351.1 416 359.2 416 367.1C416 376.8 423.2 383.1 432 383.1H480V431.1C480 440.8 487.2 447.1 496 447.1C504.8 447.1 512 440.8 512 431.1V383.1H560C568.8 383.1 576 376.8 576 367.1C576 359.2 568.8 351.1 560 351.1H512V303.1C512 295.2 504.8 287.1 496 287.1C487.2 287.1 480 295.2 480 303.1z"/><path class="fa-secondary" d="M456 0C469.3 0 480 10.75 480 24C480 37.25 469.3 48 456 48H56C42.75 48 32 37.25 32 24C32 10.75 42.75 0 56 0H456zM12.02 176.2C21.13 165.9 34.23 160 48 160H464C477.8 160 490.9 165.9 499.1 176.2C504.2 181 507.4 186.6 509.4 192.5C504.1 192.2 500.5 192 496 192C449.1 192 406.5 210.3 374.1 240.2C342.9 220.1 301.4 208 256 208C154.4 208 72 268.9 72 344C72 419.1 154.4 480 256 480C289.2 480 320.4 473.5 347.3 462.1C359.7 481.7 375.9 498.7 394.8 512H80C55.79 512 35.37 493.1 32.37 469.1L.3709 213.1C-1.337 200.3 2.904 186.6 12.02 176.2L12.02 176.2zM288 352C288 365.3 273.7 376 256 376C238.3 376 224 365.3 224 352C224 338.7 238.3 328 256 328C273.7 328 288 338.7 288 352zM16 104C16 90.75 26.75 80 40 80H472C485.3 80 496 90.75 496 104C496 117.3 485.3 128 472 128H40C26.75 128 16 117.3 16 104V104z"/></svg>
